svgs/duotone/file-invoice.svg

<svg xmlns="http://www.w3.org/2000/svg" viewBox="0 0 384 512"><!-- Font Awesome Pro 6.0.0-alpha2 by @fontawesome - https://fontawesome.com License - https://fontawesome.com/license (Commercial License) --><defs><style>.fa-secondary{opacity:.4}</style></defs><path d="M256 128V0H48C21.492 0 0 21.492 0 48V464C0 490.508 21.492 512 48 512H336C362.508 512 384 490.508 384 464V128H256ZM64 72C64 67.625 67.625 64 72 64H152C156.375 64 160 67.625 160 72V88C160 92.375 156.375 96 152 96H72C67.625 96 64 92.375 64 88V72ZM64 136C64 131.625 67.625 128 72 128H152C156.375 128 160 131.625 160 136V152C160 156.375 156.375 160 152 160H72C67.625 160 64 156.375 64 152V136ZM320 440C320 444.375 316.375 448 312 448H232C227.625 448 224 444.375 224 440V424C224 419.625 227.625 416 232 416H312C316.375 416 320 419.625 320 424V440ZM320 336C320 344.875 312.875 352 304 352H80C71.125 352 64 344.875 64 336V240C64 231.125 71.125 224 80 224H304C312.875 224 320 231.125 320 240V336Z" class="fa-secondary"/><path d="M256 0V128H384L256 0ZM304 224H80C71.125 224 64 231.125 64 240V336C64 344.875 71.125 352 80 352H304C312.875 352 320 344.875 320 336V240C320 231.125 312.875 224 304 224ZM288 320H96V256H288V320ZM312 416H232C227.625 416 224 419.625 224 424V440C224 444.375 227.625 448 232 448H312C316.375 448 320 444.375 320 440V424C320 419.625 316.375 416 312 416Z" class="fa-primary"/></svg>

<svg xmlns="http://www.w3.org/2000/svg" viewBox="0 0 384 512"><!-- Font Awesome Pro 5.15.1 by @fontawesome - https://fontawesome.com License - https://fontawesome.com/license (Commercial License) --><defs><style>.fa-secondary{opacity:.4}</style></defs><path d="M96 320h192v-64H96zm288-192H272a16 16 0 0 1-16-16V0H24A23.94 23.94 0 0 0 0 23.88V488a23.94 23.94 0 0 0 23.88 24H360a23.94 23.94 0 0 0 24-23.88V128zM64 72a8 8 0 0 1 8-8h80a8 8 0 0 1 8 8v16a8 8 0 0 1-8 8H72a8 8 0 0 1-8-8zm0 64a8 8 0 0 1 8-8h80a8 8 0 0 1 8 8v16a8 8 0 0 1-8 8H72a8 8 0 0 1-8-8zm256 304a8 8 0 0 1-8 8h-80a8 8 0 0 1-8-8v-16a8 8 0 0 1 8-8h80a8 8 0 0 1 8 8zm0-104a16 16 0 0 1-16 16H80a16 16 0 0 1-16-16v-96a16 16 0 0 1 16-16h224a16 16 0 0 1 16 16z" class="fa-secondary"/><path d="M377 105L279.1 7a24 24 0 0 0-17-7H256v112a16 16 0 0 0 16 16h112v-6.1a23.9 23.9 0 0 0-7-16.9zm-73 119H80a16 16 0 0 0-16 16v96a16 16 0 0 0 16 16h224a16 16 0 0 0 16-16v-96a16 16 0 0 0-16-16zm-16 96H96v-64h192zm24 96h-80a8 8 0 0 0-8 8v16a8 8 0 0 0 8 8h80a8 8 0 0 0 8-8v-16a8 8 0 0 0-8-8z" class="fa-primary"/></svg>
